src/public/icons/reddit.svg

<svg viewBox="0 0 30 30" fill="none"
  xmlns="http://www.w3.org/2000/svg">
  <path d="M17.412 15.0411C17.1246 15.0411 16.8715 15.1507 16.6525 15.3699C16.4472 15.5753 16.3446 15.8151 16.3446 16.089C16.3446 16.3904 16.4472 16.6438 16.6525 16.8493C16.8715 17.0548 17.1246 17.1575 17.412 17.1575V17.1986H17.4531C17.7268 17.1849 17.9594 17.0753 18.151 16.8699C18.3563 16.6644 18.4589 16.4178 18.4589 16.1301C18.4589 15.8425 18.3563 15.589 18.151 15.3699C17.9457 15.1507 17.6994 15.0411 17.412 15.0411ZM4.5 15.0205C4.5 13.1301 4.9653 11.3767 5.89589 9.76027C6.84018 8.14384 8.11975 6.86301 9.7346 5.91781C11.3495 4.9726 13.108 4.5 15.0103 4.5C16.9125 4.5 18.6642 4.9726 20.2654 5.91781C21.8803 6.86301 23.153 8.14384 24.0836 9.76027C25.0279 11.363 25.5 13.1164 25.5 15.0205C25.5 16.9247 25.0279 18.6781 24.0836 20.2808C23.1393 21.8836 21.8666 23.1507 20.2654 24.0822C18.6642 25.0274 16.9125 25.5 15.0103 25.5C13.108 25.5 11.3495 25.0274 9.7346 24.0822C8.13343 23.1507 6.8607 21.8836 5.91642 20.2808C4.97214 18.6781 4.5 16.9247 4.5 15.0205ZM8.40029 13.9521C8.14027 14.226 8.01026 14.5753 8.01026 15C8.01026 15.4521 8.16764 15.8151 8.4824 16.089C8.64663 16.226 8.79032 16.3219 8.91349 16.3767V16.8288C8.91349 17.6096 9.18719 18.3288 9.7346 18.9863C10.282 19.6301 11.021 20.1438 11.9516 20.5274C12.8959 20.911 13.9223 21.1027 15.0308 21.1027C16.1393 21.1027 17.1588 20.911 18.0894 20.5274C19.0337 20.1438 19.7796 19.6233 20.327 18.9658C20.8881 18.3082 21.1686 17.5959 21.1686 16.8288V16.3767C21.415 16.2671 21.6134 16.0959 21.7639 15.863C21.9145 15.6301 21.9897 15.3699 21.9897 15.0822C21.9897 14.6575 21.8392 14.3014 21.5381 14.0137C21.237 13.7123 20.8744 13.5616 20.4501 13.5616C20.0533 13.5616 19.7043 13.6986 19.4032 13.9726C18.1852 13.137 16.8372 12.7055 15.3592 12.6781L16.0572 9.39041L18.2742 9.84247C18.3152 10.1164 18.4316 10.3425 18.6232 10.5205C18.8148 10.6849 19.0406 10.7671 19.3006 10.7671C19.6153 10.7671 19.8754 10.6712 20.0806 10.4795C20.2859 10.274 20.3886 10.0274 20.3886 9.73973C20.3886 9.42466 20.2791 9.17123 20.0601 8.97945C19.8412 8.77397 19.5811 8.67123 19.2801 8.67123C18.9379 8.67123 18.6437 8.84247 18.3974 9.18493L15.8314 8.67123C15.8177 8.67123 15.7972 8.67123 15.7698 8.67123C15.7151 8.67123 15.6466 8.69178 15.5645 8.73288C15.4961 8.77397 15.4482 8.83562 15.4208 8.91781L14.6613 12.5753C13.9223 12.6027 13.2038 12.726 12.5059 12.9452C11.8079 13.1507 11.1716 13.4589 10.5968 13.8699C10.2957 13.5822 9.93988 13.4384 9.52933 13.4384C9.07771 13.4384 8.70137 13.6096 8.40029 13.9521ZM11.5205 16.0685C11.5205 15.7808 11.6163 15.5342 11.8079 15.3288C12.0132 15.1233 12.2595 15.0205 12.5469 15.0205C12.848 15.0205 13.0943 15.1233 13.2859 15.3288C13.4912 15.5342 13.5938 15.7808 13.5938 16.0685C13.5938 16.3699 13.4912 16.6233 13.2859 16.8288C13.0943 17.0205 12.848 17.1164 12.5469 17.1164C12.2595 17.1164 12.0132 17.0205 11.8079 16.8288C11.6163 16.6233 11.5205 16.3699 11.5205 16.0685ZM12.4032 18.9452C13.1559 19.4932 13.9633 19.7671 14.8255 19.7671C14.8939 19.7671 14.9555 19.7671 15.0103 19.7671C15.0513 19.7671 15.0924 19.7671 15.1334 19.7671C15.544 19.7671 15.9614 19.7055 16.3856 19.5822C16.8236 19.4452 17.2341 19.2329 17.6173 18.9452V19.0068C17.6857 18.9384 17.7199 18.8699 17.7199 18.8014C17.7199 18.7329 17.6857 18.6644 17.6173 18.5959C17.5626 18.5274 17.4873 18.4932 17.3915 18.4932C17.3094 18.4932 17.241 18.5274 17.1862 18.5959C16.8851 18.8151 16.5635 18.9795 16.2214 19.089C15.8793 19.1849 15.5508 19.2329 15.2361 19.2329C15.1676 19.2329 15.0924 19.2329 15.0103 19.2329C14.9418 19.2329 14.8666 19.2329 14.7845 19.2329C14.4697 19.2329 14.1344 19.1781 13.7786 19.0685C13.4365 18.9589 13.1149 18.7877 12.8138 18.5548C12.7727 18.5 12.7111 18.4726 12.629 18.4726C12.5606 18.4726 12.499 18.5 12.4443 18.5548C12.3759 18.6233 12.3416 18.6986 12.3416 18.7808C12.3416 18.8493 12.3622 18.9041 12.4032 18.9452Z" fill="#706b6d"/>
</svg>

<svg xmlns="http://www.w3.org/2000/svg" fill="none" viewBox="0 0 30 30"><path fill="#706b6d" d="M17.412 15.041q-.43 0-.76.329a1 1 0 0 0-.307.719q0 .452.308.76.329.308.759.308v.042h.041a1 1 0 0 0 .698-.33 1 1 0 0 0 .308-.739q0-.431-.308-.76a.98.98 0 0 0-.739-.329M4.5 15.021q0-2.835 1.396-5.26a10.54 10.54 0 0 1 3.839-3.843A10.26 10.26 0 0 1 15.01 4.5q2.854 0 5.255 1.418a10.4 10.4 0 0 1 3.819 3.842q1.416 2.404 1.416 5.26 0 2.857-1.416 5.26a10.5 10.5 0 0 1-3.819 3.802q-2.4 1.418-5.255 1.418a10.26 10.26 0 0 1-5.275-1.418 10.5 10.5 0 0 1-3.819-3.801Q4.5 17.877 4.5 15.02m3.9-1.069q-.39.41-.39 1.048 0 .678.472 1.089.247.206.431.288v.452q0 1.17.822 2.157.82.966 2.217 1.541 1.416.576 3.079.576t3.058-.576q1.417-.575 2.238-1.561.842-.987.842-2.137v-.452q.369-.165.595-.514.225-.35.226-.78 0-.638-.452-1.07a1.48 1.48 0 0 0-1.088-.451q-.595 0-1.047.41a7.24 7.24 0 0 0-4.044-1.294l.698-3.288 2.217.452q.062.411.35.678.286.247.677.247.471 0 .78-.287a1 1 0 0 0 .308-.74.96.96 0 0 0-.329-.76 1.1 1.1 0 0 0-.78-.309q-.513 0-.883.514l-2.566-.514h-.061a.5.5 0 0 0-.205.062.33.33 0 0 0-.144.185l-.76 3.657a8.2 8.2 0 0 0-2.155.37 6.3 6.3 0 0 0-1.91.925 1.5 1.5 0 0 0-1.067-.432q-.677 0-1.129.514m3.12 2.117q0-.432.288-.74.307-.309.739-.309.451 0 .739.309.308.308.308.74 0 .45-.308.76a1 1 0 0 1-.74.287q-.43 0-.738-.287a1.07 1.07 0 0 1-.287-.76m.883 2.876q1.13.822 2.422.822h.308q.616 0 1.253-.185a4 4 0 0 0 1.231-.637v.062q.103-.103.103-.206t-.103-.205a.27.27 0 0 0-.226-.103.25.25 0 0 0-.205.103q-.45.33-.965.493-.513.144-.985.144h-.452q-.472 0-1.005-.165a3.1 3.1 0 0 1-.965-.513q-.062-.082-.185-.082a.26.26 0 0 0-.185.082.3.3 0 0 0-.102.226q0 .102.061.164"/></svg>
